scalable/mimes/application-vnd.ms-excel.svg

<?xml version="1.0" encoding="UTF-8" standalone="no"?>
<!-- Created with Inkscape (http://www.inkscape.org/) -->

<svg
   xmlns:dc="http://purl.org/dc/elements/1.1/"
   xmlns:cc="http://creativecommons.org/ns#"
   xmlns:rdf="http://www.w3.org/1999/02/22-rdf-syntax-ns#"
   xmlns:svg="http://www.w3.org/2000/svg"
   xmlns="http://www.w3.org/2000/svg"
   xmlns:xlink="http://www.w3.org/1999/xlink"
   xmlns:sodipodi="http://sodipodi.sourceforge.net/DTD/sodipodi-0.dtd"
   xmlns:inkscape="http://www.inkscape.org/namespaces/inkscape"
   id="svg2677"
   width="48"
   height="48"
   version="1.0"
   sodipodi:docname="application-vnd.ms-excel.svg"
   inkscape:version="0.92.3 (2405546, 2018-03-11)">
  <metadata
     id="metadata71">
    <rdf:RDF>
      <cc:Work
         rdf:about="">
        <dc:format>image/svg+xml</dc:format>
        <dc:type
           rdf:resource="http://purl.org/dc/dcmitype/StillImage" />
        <dc:title></dc:title>
      </cc:Work>
    </rdf:RDF>
  </metadata>
  <sodipodi:namedview
     pagecolor="#ffffff"
     bordercolor="#666666"
     borderopacity="1"
     objecttolerance="10"
     gridtolerance="10"
     guidetolerance="10"
     inkscape:pageopacity="0"
     inkscape:pageshadow="2"
     inkscape:window-width="1366"
     inkscape:window-height="714"
     id="namedview69"
     showgrid="false"
     inkscape:zoom="2.6302083"
     inkscape:cx="24"
     inkscape:cy="32.014426"
     inkscape:window-x="0"
     inkscape:window-y="25"
     inkscape:window-maximized="1"
     inkscape:current-layer="svg2677"
     showguides="false" />
  <defs
     id="defs2679">
    <linearGradient
       id="linearGradient2642"
       x1="302.86"
       x2="302.86"
       y1="366.65"
       y2="609.51"
       gradientTransform="matrix(.067325 0 0 .0147 -.34114 37.04)"
       gradientUnits="userSpaceOnUse">
      <stop
         id="stop5050"
         style="stop-opacity:0"
         offset="0" />
      <stop
         id="stop5056"
         offset=".5" />
      <stop
         id="stop5052"
         style="stop-opacity:0"
         offset="1" />
    </linearGradient>
    <radialGradient
       id="radialGradient2639"
       cx="605.71"
       cy="486.65"
       r="117.14"
       gradientTransform="matrix(-.02304 0 0 .0147 21.623 37.04)"
       gradientUnits="userSpaceOnUse"
       xlink:href="#linearGradient5060" />
    <linearGradient
       id="linearGradient5060">
      <stop
         id="stop5062"
         offset="0" />
      <stop
         id="stop5064"
         style="stop-opacity:0"
         offset="1" />
    </linearGradient>
    <radialGradient
       id="radialGradient2636"
       cx="605.71"
       cy="486.65"
       r="117.14"
       gradientTransform="matrix(.02304 0 0 .0147 26.361 37.04)"
       gradientUnits="userSpaceOnUse"
       xlink:href="#linearGradient5060" />
    <linearGradient
       id="linearGradient2633"
       x1="-51.786"
       x2="-51.786"
       y1="50.786"
       y2="2.9062"
       gradientTransform="matrix(.8075 0 0 .89483 59.41 -2.9806)"
       gradientUnits="userSpaceOnUse">
      <stop
         id="stop3106"
         style="stop-color:#aaa"
         offset="0" />
      <stop
         id="stop3108"
         style="stop-color:#c8c8c8"
         offset="1" />
    </linearGradient>
    <linearGradient
       id="linearGradient2631"
       x1="25.132"
       x2="25.132"
       y1=".98521"
       y2="47.013"
       gradientTransform="matrix(1 0 0 .95617 -1.0065e-7 -1.9149)"
       gradientUnits="userSpaceOnUse">
      <stop
         id="stop3602"
         style="stop-color:#f4f4f4"
         offset="0" />
      <stop
         id="stop3604"
         style="stop-color:#dbdbdb"
         offset="1" />
    </linearGradient>
    <radialGradient
       id="radialGradient2628"
       cx="102"
       cy="112.3"
       r="139.56"
       gradientTransform="matrix(.3617 0 0 -.39078 .85106 47.517)"
       gradientUnits="userSpaceOnUse">
      <stop
         id="stop41"
         style="stop-color:#b7b8b9"
         offset="0" />
      <stop
         id="stop47"
         style="stop-color:#ececec"
         offset=".18851" />
      <stop
         id="stop49"
         style="stop-color:#fafafa;stop-opacity:0"
         offset=".25718" />
      <stop
         id="stop51"
         style="stop-color:#fff;stop-opacity:0"
         offset=".30111" />
      <stop
         id="stop53"
         style="stop-color:#fafafa;stop-opacity:0"
         offset=".5313" />
      <stop
         id="stop55"
         style="stop-color:#ebecec;stop-opacity:0"
         offset=".8449" />
      <stop
         id="stop57"
         style="stop-color:#e1e2e3;stop-opacity:0"
         offset="1" />
    </radialGradient>
    <linearGradient
       id="linearGradient2625"
       x1="24"
       x2="24"
       y1="2"
       y2="46.017"
       gradientTransform="matrix(1 0 0 .97778 0 -.96667)"
       gradientUnits="userSpaceOnUse">
      <stop
         id="stop3213"
         style="stop-color:#fff"
         offset="0" />
      <stop
         id="stop3215"
         style="stop-color:#fff;stop-opacity:0"
         offset="1" />
    </linearGradient>
    <filter
       id="filter3212"
       x="-.14846"
       y="-.16434"
       width="1.2969"
       height="1.3287"
       color-interpolation-filters="sRGB">
      <feGaussianBlur
         id="feGaussianBlur3214"
         stdDeviation="0.77391625" />
    </filter>
    <linearGradient
       id="linearGradient2621"
       x1="32.892"
       x2="36.358"
       y1="8.059"
       y2="5.4565"
       gradientTransform="matrix(.9977 0 0 1.0407 .1638 -1.1058)"
       gradientUnits="userSpaceOnUse">
      <stop
         id="stop8591"
         style="stop-color:#fefefe"
         offset="0" />
      <stop
         id="stop8593"
         style="stop-color:#cbcbcb"
         offset="1" />
    </linearGradient>
    <radialGradient
       id="radialGradient2675"
       cx="22.902"
       cy="45.867"
       r="7.9059"
       gradientTransform="matrix(.69765 0 0 .29961 12.507 18.89)"
       gradientUnits="userSpaceOnUse">
      <stop
         id="stop3197"
         offset="0" />
      <stop
         id="stop3199"
         style="stop-opacity:0"
         offset="1" />
    </radialGradient>
    <radialGradient
       id="radialGradient2672"
       cx="22.902"
       cy="45.867"
       r="7.9059"
       gradientTransform="matrix(.75875 0 0 .32584 -.80598 19.479)"
       gradientUnits="userSpaceOnUse">
      <stop
         id="stop3203"
         offset="0" />
      <stop
         id="stop3205"
         style="stop-opacity:0"
         offset="1" />
    </radialGradient>
    <radialGradient
       id="radialGradient2668"
       cx="17.059"
       cy="41.059"
       r="5.7385"
       fx="14.638"
       fy="38.175"
       gradientTransform="matrix(.66498 0 -.10886 .63739 9.9382 5.2626)"
       gradientUnits="userSpaceOnUse">
      <stop
         id="stop3877"
         style="stop-color:#aaa"
         offset="0" />
      <stop
         id="stop3879"
         style="stop-color:#4d4d4d"
         offset="1" />
    </radialGradient>
    <radialGradient
       id="radialGradient2665"
       cx="17.059"
       cy="41.059"
       r="5.7385"
       fx="14.109"
       fy="38.981"
       gradientTransform="matrix(.66333 0 -.10859 .6358 21.997 3.4975)"
       gradientUnits="userSpaceOnUse">
      <stop
         id="stop3871"
         style="stop-color:#aaa"
         offset="0" />
      <stop
         id="stop3873"
         style="stop-color:#4d4d4d"
         offset="1" />
    </radialGradient>
    <linearGradient
       id="linearGradient2662"
       x1="28.739"
       x2="25.4"
       y1="144.12"
       y2="119.86"
       gradientTransform="matrix(.22147 0 0 .22311 14.032 -16.079)"
       gradientUnits="userSpaceOnUse">
      <stop
         id="stop3239"
         style="stop-color:#fff"
         offset="0" />
      <stop
         id="stop3241"
         style="stop-color:#fff;stop-opacity:.37931"
         offset="1" />
    </linearGradient>
    <linearGradient
       id="linearGradient2659"
       x1="28.739"
       x2="26.257"
       y1="144.12"
       y2="125.39"
       gradientTransform="matrix(.44563 0 0 .22311 20.716 -17.657)"
       gradientUnits="userSpaceOnUse">
      <stop
         id="stop3245"
         style="stop-color:#fff"
         offset="0" />
      <stop
         id="stop3247"
         style="stop-color:#fff;stop-opacity:.37931"
         offset="1" />
    </linearGradient>
    <linearGradient
       id="linearGradient2460"
       x1="24.239"
       x2="24.239"
       y1="44.110001"
       y2="0.19080999"
       gradientTransform="matrix(1.0454,0,0,1.01,2.8837374,-4.6883928)"
       gradientUnits="userSpaceOnUse">
      <stop
         id="stop4108"
         style="stop-color:#355129"
         offset="0" />
      <stop
         id="stop4110"
         style="stop-color:#7c8763"
         offset="1" />
    </linearGradient>
    <linearGradient
       id="linearGradient2460-3"
       x1="24.239"
       x2="24.239"
       y1="44.110001"
       y2="0.19080999"
       gradientTransform="matrix(0.95449565,0,0,0.92217391,5.2290587,-4.3695648)"
       gradientUnits="userSpaceOnUse">
      <stop
         id="stop4108-6"
         style="stop-color:#16502d;stop-opacity:1"
         offset="0" />
      <stop
         id="stop4110-7"
         style="stop-color:#217844;stop-opacity:1"
         offset="1" />
    </linearGradient>
  </defs>
  <g
     id="g917">
    <path
       id="path15"
       d="M 33.055216,47.96866 H 14.943897 L 7.11346,17.418117 13.012677,0.0300845 h 21.972796 l 5.899506,17.3880325 z"
       style="fill:#2ca05a"
       inkscape:connector-curvature="0" />
    <path
       id="path17"
       d="m 18.278883,43.815686 -3.335308,4.152546 H 33.056277 L 29.72097,43.815686 Z"
       style="fill:#37c871"
       inkscape:connector-curvature="0" />
    <g
       id="g23"
       style="fill:#217844;stroke-width:0.12053">
      <path
         style="fill:#217844"
         id="path21"
         d="m 29.720655,43.81726 3.335244,4.15268 7.830641,-30.551026 -4.440791,0.160826 z M 7.1139354,17.419147 14.94298,47.970173 18.278224,43.817493 11.55313,17.580183 Z m 5.8989676,-17.3893199 3.08576,4.1526806 h 15.801632 l 3.085761,-4.15268061 z"
         inkscape:connector-curvature="0" />
    </g>
    <g
       id="g27"
       style="fill:#16502d">
      <path
         style="fill:#16502d"
         id="path25"
         d="M 7.11346,17.418117 13.012677,0.03008455 16.098587,4.1828573 11.552956,17.579161 Z M 36.445194,17.579161 31.899563,4.1828573 34.985473,0.03008455 40.884979,17.418117 Z"
         inkscape:connector-curvature="0" />
    </g>
    <path
       id="text4083"
       d="M 33.130298,28.5 H 28.095776 C 26.678367,25.967399 25.260867,23.434708 23.843459,20.902108 22.42605,23.434708 21.00855,25.967399 19.591141,28.5 H 14.86952 c 2.104839,-3.453131 4.209678,-6.906353 6.314517,-10.359391 -1.957839,-3.242491 -3.91577,-6.484982 -5.873609,-9.7275655 h 4.863874 c 1.298896,2.4089745 2.597883,4.8179485 3.896778,7.2269225 1.2705,-2.408974 2.541,-4.817948 3.8115,-7.2269225 h 4.750109 C 30.651111,11.733418 28.669533,15.053701 26.687954,18.374348 28.835433,21.749686 30.982911,25.124934 33.13048,28.5 Z"
       style="opacity:0.4;fill:#ffffff;stroke-width:0.9130435"
       inkscape:connector-curvature="0" />
    <path
       id="text3893"
       d="m 33.130298,27.586957 h -5.034522 c -1.417409,-2.532601 -2.834909,-5.065293 -4.252317,-7.597893 -1.417409,2.5326 -2.834909,5.065292 -4.252318,7.597893 H 14.86952 C 16.974359,24.133825 19.079198,20.680603 21.184037,17.227565 19.226198,13.985075 17.268267,10.742584 15.310428,7.5 h 4.863874 c 1.298896,2.4089748 2.597883,4.817949 3.896778,7.226923 1.2705,-2.408974 2.541,-4.8179482 3.8115,-7.226923 h 4.750109 c -1.981578,3.320375 -3.963156,6.640657 -5.944735,9.961304 2.147479,3.375339 4.294957,6.750586 6.442526,10.125653 z"
       style="fill:url(#linearGradient2460-3);stroke-width:0.9130435"
       inkscape:connector-curvature="0" />
  </g>
</svg>

<svg xmlns="http://www.w3.org/2000/svg" width="48" height="48" version="1"><defs><linearGradient id="a"><stop offset="0"/><stop offset="1" stop-opacity="0"/></linearGradient><linearGradient id="b" x1="24.24" x2="24.24" y1="44.11" y2=".19" gradientTransform="matrix(.9545 0 0 .92217 5.23 -4.37)" gradientUnits="userSpaceOnUse"><stop offset="0" stop-color="#16502d"/><stop offset="1" stop-color="#217844"/></linearGradient></defs><path d="M33.06 47.97H14.94L7.11 17.42 13.01.03H35l5.9 17.39z" fill="#2ca05a"/><path d="M18.28 43.82l-3.34 4.15h18.12l-3.34-4.15z" fill="#37c871"/><path d="M29.72 43.82l3.34 4.15 7.83-30.55-4.44.16zm-22.6-26.4l7.82 30.55 3.34-4.15-6.73-26.24zM13.01.03l3.08 4.15h15.8L34.99.03z" fill="#217844" stroke-width=".12"/><path d="M7.11 17.42L13.01.03l3.09 4.15-4.55 13.4zm29.34.16L31.9 4.18 34.99.03l5.9 17.39z" fill="#16502d"/><path d="M33.13 28.5H28.1l-4.26-7.6-4.25 7.6h-4.72l6.31-10.36-5.87-9.73h4.86l3.9 7.23 3.81-7.23h4.75l-5.94 9.96 6.44 10.13z" opacity=".4" fill="#fff"/><path d="M33.13 27.59H28.1l-4.26-7.6-4.25 7.6h-4.72l6.31-10.36-5.87-9.73h4.86l3.9 7.23 3.81-7.23h4.75l-5.94 9.96 6.44 10.13z" fill="url(#b)"/></svg>
